X: 24090
T: Long Night, The
R: slip jig
M: 9/8
K: Bminor
Bag fgf f2d|Bag fed ecA|Bag fga afd|cde efd ecA:|
GAB Bgf e2c|ABA eaf ecA|GAB Bgf gdB|c2A Aef ~g3:|

